resources/svg/info.svg

<svg xmlns="http://www.w3.org/2000/svg" viewBox="0 0 24 24" fill="currentColor"><path fill="none" stroke="currentColor" stroke-width="2" d="M15,17.0002864 C15,14.0000003 19,12.0005727 19,8.00028636 C19,4.00000002 16,1.00028636 12,1.00028636 C8,1.00028636 5,4.00000002 5,8.00028636 C5,12.0005727 9,14.0000003 9,17.0002864 C9,20.0005725 9,20 9,20 C9,22.0000003 10,22.9999997 12,23 C14,23.0000003 15,22.0000003 15,20 C15,20 15,20.0005725 15,17.0002864 Z M9,18 L15,18"/></svg>

<svg viewBox="0 0 24 24"><path fill="none" stroke="currentColor" stroke-width="2" d="M15 17c0-3 4-5 4-9s-3-7-7-7s-7 3-7 7s4 6 4 9v3c0 2 1 3 3 3s3-1 3-3v-3zm-6 1h6"/></svg>
